!!!COM: Anon.
!!!OTL: Novus Miles Sequitur
!!!SCA: Folio 230-230'
!!!YOR: from 'Thirty-Five Conductus for Two and Three Voices', p.40
!!!YOR: edited by Janet Knapp, Collegium Musicum No. 6, Yale University (1965)
!!!YOR: from the School of Notre Dame; circa 1170-1240
!!!YOO: Yale University
!!!YOY: 1965
**kern	**kern	**kern
*M6/8	*M6/8	*M6/8
=1	=1	=1
4G	4g	4d
8B	16f	8d
.	16e	.
4d	4d	8e
.	.	8f
8d	8G	8g
=2	=2	=2
8e	4A	4c
8d	.	.
16c	8A	8d
16B	.	.
4A	8A	4e
.	8A	.
8r	8B	8r
=3	=3	=3
4c	4c	4e
16B	8d	8d
16A	.	.
4G	4d	8e
.	.	8f
8B	16c	8g
.	16B	.
=4	=4	=4
4.d	4.A	8f
.	.	8e
.	.	8f
4d	4G	4g
8r	8r	8r
=5	=5	=5
4c	4c	4e
8A	8d	8d
4B	4d	4f
8G	8d	8d
=6	=6	=6
4F	4f	4c
8G	8g	8d
8A	8f	8c
8A	8e	8B
8B	8d	8A
=7	=7	=7
4c	4c	4c
8A	8d	8d
4B	8e	4d
.	8f	.
16A	8g	8d
16G	.	.
=8	=8	=8
4.F	8f	8c
.	8e	8B
.	8f	8A
4G	4d	4G
8r	8r	8r
=9	=9	=9
4d	4G	4g
8d	8G	16f
.	.	16e
4e	4A	4d
8f	8F	8c
=10	=10	=10
8g	8G	4g
8f	8A	.
16f	8B	8f
16e	.	.
4d	4G	4g
8r	8r	8r
=11	=11	=11
4f	4F	4f
16e	8G	8g
16d	.	.
4c	8A	16f
.	.	16e
.	8B	8d
8c	8c	8c
=12	=12	=12
8e	8c	4A
8d	8B	.
8c	8A	8B
4B	4B	4G
8r	8r	8r
=13	=13	=13
4c	4c	4f
8c	16B	8g
.	16A	.
4c	4G	4g
16B	8d	8f
16A	.	.
=14	=14	=14
4G	8e	8e
.	8d	8d
8A	8c	8f
4B	4B	4e
8r	8r	8r
=15	=15	=15
4c	4c	4e
16B	8d	8d
16A	.	.
4G	4d	4g
8B	8d	8f
=16	=16	=16
4d	8c	8f
.	8B	8e
8c	8A	8f
4d	4G	4g
8r	8r	8r
=17	=17	=17
4f	4F	4c
16e	8G	8d
16d	.	.
4c	4G	4d
16B	8A	8d
16A	.	.
=18	=18	=18
4G	4c	8c
.	.	8B
8A	8c	8A
8B	4B	4G
8B	.	.
8A	8r	8r
=19	=19	=19
4G	8d	8d
.	8e	8e
8F	8f	8c
4A	8e	8e
.	8d	8f
8c	16c	8g
.	16B	.
=20	=20	=20
8B	8A	8f
8B	8B	8e
8A	8c	8f
4G;	4d;	4g;
8r	8r	8r
==	==	==
*-	*-	*-
!!!ENC: David Huron
!!!YEC: Copyright 1987, David Huron
!!!EEV: 1.0
